apps/portfolio-v2/public/projects/spaceduck/showcase/wordmark.svg

<svg
  width="265"
  height="64"
  viewBox="0 0 265 64"
  fill="none"
  xmlns="http://www.w3.org/2000/svg"
>
  <g clip-path="url(#clip0_6_416)">
    <path
      d="M15.0073 8.24033C11.6958 9.2472 9.08182 11.9088 8.09296 15.2806C7.96265 15.7255 7.36473 15.7255 7.24208 15.2806C6.25322 11.9088 3.63924 9.2472 0.327704 8.24033C-0.109235 8.10765 -0.109235 7.49884 0.327704 7.37396C3.63924 6.36709 6.25322 3.70552 7.24208 0.333672C7.37239 -0.111224 7.97031 -0.111224 8.09296 0.333672C9.08182 3.70552 11.6958 6.36709 15.0073 7.37396C15.4443 7.50664 15.4443 8.11545 15.0073 8.24033Z"
      fill="#F0F1F4"
    />
    <path
      d="M64 39.625C64 40.886 63.0115 41.9 61.7822 41.9H51.935C51.3901 53.977 40.7445 64 28.198 64C15.6515 64 4.43563 53.431 4.43563 40.925V39.729L0.291474 32.358C-0.316843 31.266 0.0506815 29.875 1.10256 29.251C2.16712 28.627 3.52316 28.991 4.14415 30.083L8.23761 37.35H32.3168V24.675C32.3168 17.681 37.855 12 44.6733 12C51.4915 12 57.0297 17.681 57.0297 24.675V29.225C57.0297 30.486 56.0412 31.5 54.8119 31.5C53.5826 31.5 52.5941 30.486 52.5941 29.225V24.675C52.5941 20.19 49.0455 16.55 44.6733 16.55C40.301 16.55 36.7525 20.19 36.7525 24.675V37.35H38.9703C40.1996 37.35 41.1881 38.364 41.1881 39.625V40.6C41.1881 47.477 35.2443 53.275 28.198 53.275C23.9525 53.275 19.783 51.039 17.3243 47.425C16.6273 46.398 16.8808 44.981 17.882 44.253C18.8832 43.538 20.2645 43.798 20.9616 44.825C22.6091 47.23 25.3719 48.725 28.198 48.725C32.2915 48.725 35.9287 45.657 36.6384 41.9H8.89662C9.46692 51.351 18.2495 59.45 28.198 59.45C38.1465 59.45 47.5247 50.792 47.5247 40.925V39.625C47.5247 38.364 48.5133 37.35 49.7426 37.35H61.7822C63.0115 37.35 64 38.364 64 39.625Z"
      fill="#F0F1F4"
    />
  </g>
  <path
    d="M259.108 57.4562C258.914 57.4562 258.732 57.363 258.62 57.2058L252.704 48.9708L250.143 51.3798V56.8569C250.143 57.1879 249.874 57.4562 249.542 57.4562H246.813C246.481 57.4562 246.212 57.1879 246.212 56.8569V32.5993C246.212 32.2683 246.481 32 246.813 32H249.542C249.874 32 250.143 32.2683 250.143 32.5993V46.2022L257.509 39.4917C257.62 39.3908 257.764 39.3348 257.915 39.3348H261.431C261.976 39.3348 262.24 39.9985 261.843 40.3705L255.589 46.2382L262.888 56.5105C263.17 56.9074 262.886 57.4562 262.398 57.4562H259.108Z"
    fill="#F0F1F4"
  />
  <path
    d="M234.567 57.7439C229.265 57.7439 225.406 53.7888 225.406 48.3596C225.406 42.9663 229.229 39.0472 234.567 39.0472C239.056 39.0472 242.071 41.4132 242.853 45.0598C242.929 45.4144 242.647 45.7349 242.284 45.7349H239.498C239.21 45.7349 238.968 45.5301 238.88 45.2574C238.32 43.5191 236.687 42.427 234.567 42.427C231.645 42.427 229.409 44.872 229.409 48.3596C229.409 51.8832 231.645 54.3641 234.567 54.3641C236.818 54.3641 238.493 53.2125 239.031 51.438C239.115 51.1594 239.36 50.9484 239.652 50.9484H242.422C242.788 50.9484 243.07 51.2723 242.986 51.6271C242.166 55.0792 238.971 57.7439 234.567 57.7439Z"
    fill="#F0F1F4"
  />
  <path
    d="M211.687 57.7438C207.791 57.7438 204.942 55.2629 204.942 50.9124V39.9341C204.942 39.6031 205.211 39.3348 205.543 39.3348H208.308C208.64 39.3348 208.909 39.6031 208.909 39.9341V50.1933C208.909 52.782 210.388 54.2921 212.697 54.2921C215.87 54.2921 217.782 51.5596 217.782 47.1371V39.9341C217.782 39.6031 218.051 39.3348 218.383 39.3348H221.148C221.48 39.3348 221.75 39.6031 221.75 39.9341V56.8569C221.75 57.1879 221.48 57.4562 221.148 57.4562H218.383C218.051 57.4562 217.782 57.1879 217.782 56.8569V54.6517C216.772 56.4135 214.572 57.7438 211.687 57.7438Z"
    fill="#F0F1F4"
  />
  <path
    d="M191.239 57.7438C185.865 57.7438 182.258 54.0764 182.258 48.3955C182.258 42.7146 185.865 39.0472 191.239 39.0472C193.728 39.0472 196.072 40.1618 197.082 41.8517V32.5993C197.082 32.2683 197.351 32 197.683 32H200.448C200.78 32 201.049 32.2683 201.049 32.5993V56.8569C201.049 57.1879 200.78 57.4562 200.448 57.4562H197.683C197.351 57.4562 197.082 57.1879 197.082 56.8569V54.9034C196.072 56.6292 193.692 57.7438 191.239 57.7438ZM186.298 48.3955C186.298 51.9191 188.534 54.364 191.672 54.364C194.846 54.364 197.082 51.8831 197.082 48.3955C197.082 44.836 194.846 42.427 191.672 42.427C188.534 42.427 186.298 44.836 186.298 48.3955Z"
    fill="#F0F1F4"
  />
  <path
    d="M171.486 57.7439C165.931 57.7439 162.216 53.8607 162.216 48.3956C162.216 42.9304 166.039 39.0472 171.269 39.0472C176.859 39.0472 180.351 43.2303 179.909 48.5902C179.884 48.8907 179.627 49.1147 179.324 49.1147H166.184C166.436 52.4944 168.492 54.436 171.413 54.436C173.522 54.436 174.968 53.5063 175.56 52.0305C175.661 51.7792 175.894 51.5956 176.165 51.5956H178.955C179.329 51.5956 179.614 51.9338 179.514 52.2933C178.612 55.5454 175.632 57.7439 171.486 57.7439ZM166.4 46.1304H175.778C175.742 43.7214 173.902 42.2113 171.269 42.2113C168.708 42.2113 166.977 43.5416 166.4 46.1304Z"
    fill="#F0F1F4"
  />
  <path
    d="M151.618 57.7439C146.316 57.7439 142.456 53.7888 142.456 48.3596C142.456 42.9663 146.28 39.0472 151.618 39.0472C156.107 39.0472 159.121 41.4132 159.904 45.0598C159.98 45.4144 159.698 45.7349 159.334 45.7349H156.548C156.261 45.7349 156.019 45.5301 155.931 45.2574C155.371 43.5191 153.738 42.427 151.618 42.427C148.696 42.427 146.46 44.872 146.46 48.3596C146.46 51.8832 148.696 54.3641 151.618 54.3641C153.869 54.3641 155.543 53.2125 156.082 51.438C156.166 51.1594 156.411 50.9484 156.703 50.9484H159.473C159.838 50.9484 160.121 51.2723 160.037 51.6271C159.217 55.0792 156.022 57.7439 151.618 57.7439Z"
    fill="#F0F1F4"
  />
  <path
    d="M129.931 57.7439C126.072 57.7439 123.583 55.6225 123.583 52.4944C123.583 48.8989 126.072 47.0293 131.699 46.418L135.377 46.0585V45.5911C135.377 43.4697 133.863 42.2113 131.554 42.2113C129.572 42.2113 128.195 43.1764 127.756 44.9685C127.685 45.2598 127.435 45.4832 127.134 45.4832H124.384C124.018 45.4832 123.735 45.1599 123.818 44.8051C124.574 41.5653 127.37 39.0472 131.554 39.0472C136.099 39.0472 139.345 41.6 139.345 46.0585V56.857C139.345 57.1879 139.076 57.4562 138.744 57.4562H135.979C135.647 57.4562 135.377 57.1879 135.377 56.857V54.8315C134.62 56.4135 132.384 57.7439 129.931 57.7439ZM127.515 52.3147C127.515 53.7529 128.705 54.6158 130.58 54.6158C133.466 54.6158 135.377 52.3506 135.377 49.4742V48.9708L131.879 49.4023C128.813 49.7618 127.515 50.5169 127.515 52.3147Z"
    fill="#F0F1F4"
  />
  <path
    d="M102.823 64C102.491 64 102.221 63.7318 102.221 63.4008V39.9341C102.221 39.6032 102.491 39.3349 102.823 39.3349H105.588C105.92 39.3349 106.189 39.6032 106.189 39.9341V41.8517C107.235 40.1618 109.543 39.0472 112.032 39.0472C117.442 39.0472 121.013 42.7147 121.013 48.3956C121.013 54.0765 117.442 57.7439 112.032 57.7439C109.579 57.7439 107.235 56.6293 106.189 54.9034V63.4008C106.189 63.7318 105.92 64 105.588 64H102.823ZM106.189 48.3956C106.189 51.8832 108.425 54.3641 111.599 54.3641C114.737 54.3641 117.009 51.9192 117.009 48.3956C117.009 44.836 114.737 42.427 111.599 42.427C108.425 42.427 106.189 44.836 106.189 48.3956Z"
    fill="#F0F1F4"
  />
  <path
    d="M89.8533 57.7438C84.5846 57.7438 80.715 54.9212 80.0052 49.6909C79.9581 49.3436 80.236 49.0427 80.5875 49.0427H83.5412C83.8488 49.0427 84.1041 49.2757 84.1575 49.5777C84.6969 52.6313 86.9521 54.1124 89.8533 54.1124C92.6305 54.1124 94.5782 52.7461 94.5782 50.6247C94.5782 44.6921 80.7281 47.964 80.7281 38.9034C80.7281 34.7326 84.3709 32 89.204 32C94.2475 32 97.5938 34.5376 98.4049 38.8083C98.4721 39.162 98.191 39.4787 97.8299 39.4787H94.8575C94.5696 39.4787 94.3259 39.2737 94.2451 38.9983C93.6228 36.8797 91.7578 35.6315 89.204 35.6315C86.6071 35.6315 84.948 36.818 84.948 38.7236C84.948 43.8292 98.8342 40.6292 98.8342 50.373C98.8342 54.8315 95.0831 57.7438 89.8533 57.7438Z"
    fill="#F0F1F4"
  />
  <defs>
    <clipPath id="clip0_6_416">
      <rect width="64" height="64" fill="white"/>
    </clipPath>
  </defs>
</svg>

<svg width="265" height="64" fill="none" xmlns="http://www.w3.org/2000/svg"><g clip-path="url(#a)" fill="#F0F1F4"><path d="M15.007 8.24c-3.311 1.007-5.925 3.669-6.914 7.04a.438.438 0 0 1-.85 0C6.252 11.91 3.638 9.248.327 8.24c-.437-.132-.437-.741 0-.866C3.639 6.367 6.253 3.706 7.242.334a.438.438 0 0 1 .851 0c.989 3.372 3.603 6.033 6.914 7.04.437.133.437.741 0 .866ZM64 39.625c0 1.261-.989 2.275-2.218 2.275h-9.847C51.39 53.977 40.745 64 28.198 64 15.652 64 4.436 53.431 4.436 40.925v-1.196L.29 32.358c-.608-1.092-.24-2.483.812-3.107a2.202 2.202 0 0 1 3.041.832l4.094 7.267h24.079V24.675C32.317 17.681 37.855 12 44.673 12c6.819 0 12.357 5.681 12.357 12.675v4.55c0 1.261-.989 2.275-2.218 2.275-1.23 0-2.218-1.014-2.218-2.275v-4.55c0-4.485-3.549-8.125-7.92-8.125-4.373 0-7.922 3.64-7.922 8.125V37.35h2.218c1.23 0 2.218 1.014 2.218 2.275v.975c0 6.877-5.944 12.675-12.99 12.675-4.245 0-8.415-2.236-10.874-5.85a2.328 2.328 0 0 1 .558-3.172c1.001-.715 2.383-.455 3.08.572 1.647 2.405 4.41 3.9 7.236 3.9 4.093 0 7.73-3.068 8.44-6.825H8.897c.57 9.451 9.353 17.55 19.301 17.55 9.949 0 19.327-8.658 19.327-18.525v-1.3c0-1.261.988-2.275 2.218-2.275h12.04c1.228 0 2.217 1.014 2.217 2.275Z"/></g><path d="M259.108 57.456a.599.599 0 0 1-.488-.25l-5.916-8.235-2.561 2.409v5.477a.6.6 0 0 1-.601.6h-2.729a.6.6 0 0 1-.601-.6V32.599a.6.6 0 0 1 .601-.599h2.729a.6.6 0 0 1 .601.6v13.602l7.366-6.71a.602.602 0 0 1 .406-.157h3.516c.545 0 .809.663.412 1.035l-6.254 5.868 7.299 10.273a.599.599 0 0 1-.49.945h-3.29ZM234.567 57.744c-5.302 0-9.161-3.955-9.161-9.384 0-5.394 3.823-9.313 9.161-9.313 4.489 0 7.504 2.366 8.286 6.013.076.354-.206.675-.569.675h-2.786c-.288 0-.53-.205-.618-.478-.56-1.738-2.193-2.83-4.313-2.83-2.922 0-5.158 2.445-5.158 5.933 0 3.523 2.236 6.004 5.158 6.004 2.251 0 3.926-1.151 4.464-2.926.084-.279.329-.49.621-.49h2.77c.366 0 .648.324.564.68-.82 3.451-4.015 6.116-8.419 6.116ZM211.687 57.744c-3.896 0-6.745-2.481-6.745-6.832V39.934a.6.6 0 0 1 .601-.6h2.765a.6.6 0 0 1 .601.6v10.26c0 2.588 1.479 4.098 3.788 4.098 3.173 0 5.085-2.732 5.085-7.155v-7.203a.6.6 0 0 1 .601-.6h2.765a.6.6 0 0 1 .602.6v16.923a.6.6 0 0 1-.602.6h-2.765a.6.6 0 0 1-.601-.6v-2.205c-1.01 1.761-3.21 3.092-6.095 3.092ZM191.239 57.744c-5.374 0-8.981-3.668-8.981-9.349 0-5.68 3.607-9.348 8.981-9.348 2.489 0 4.833 1.115 5.843 2.805v-9.253a.6.6 0 0 1 .601-.599h2.765a.6.6 0 0 1 .601.6v24.257a.6.6 0 0 1-.601.6h-2.765a.6.6 0 0 1-.601-.6v-1.954c-1.01 1.726-3.39 2.84-5.843 2.84Zm-4.941-9.349c0 3.524 2.236 5.969 5.374 5.969 3.174 0 5.41-2.48 5.41-5.968 0-3.56-2.236-5.969-5.41-5.969-3.138 0-5.374 2.409-5.374 5.968ZM171.486 57.744c-5.555 0-9.27-3.883-9.27-9.348 0-5.466 3.823-9.349 9.053-9.349 5.59 0 9.082 4.183 8.64 9.543a.58.58 0 0 1-.585.525h-13.14c.252 3.38 2.308 5.321 5.229 5.321 2.109 0 3.555-.93 4.147-2.405.101-.252.334-.435.605-.435h2.79c.374 0 .659.338.559.697-.902 3.252-3.882 5.45-8.028 5.45ZM166.4 46.13h9.378c-.036-2.409-1.876-3.919-4.509-3.919-2.561 0-4.292 1.33-4.869 3.92ZM151.618 57.744c-5.302 0-9.162-3.955-9.162-9.384 0-5.394 3.824-9.313 9.162-9.313 4.489 0 7.503 2.366 8.286 6.013.076.354-.206.675-.57.675h-2.786c-.287 0-.529-.205-.617-.478-.56-1.738-2.193-2.83-4.313-2.83-2.922 0-5.158 2.445-5.158 5.933 0 3.523 2.236 6.004 5.158 6.004 2.251 0 3.925-1.151 4.464-2.926.084-.279.329-.49.621-.49h2.77c.365 0 .648.324.564.68-.82 3.451-4.015 6.116-8.419 6.116ZM129.931 57.744c-3.859 0-6.348-2.121-6.348-5.25 0-3.595 2.489-5.465 8.116-6.076l3.678-.36v-.467c0-2.121-1.514-3.38-3.823-3.38-1.982 0-3.359.965-3.798 2.758-.071.29-.321.514-.622.514h-2.75c-.366 0-.649-.323-.566-.678.756-3.24 3.552-5.758 7.736-5.758 4.545 0 7.791 2.553 7.791 7.012v10.798a.6.6 0 0 1-.601.6h-2.765a.6.6 0 0 1-.602-.6v-2.026c-.757 1.582-2.993 2.913-5.446 2.913Zm-2.416-5.43c0 1.439 1.19 2.302 3.065 2.302 2.886 0 4.797-2.265 4.797-5.142v-.503l-3.498.431c-3.066.36-4.364 1.115-4.364 2.913ZM102.823 64a.6.6 0 0 1-.602-.6V39.935c0-.33.27-.6.602-.6h2.765a.6.6 0 0 1 .601.6v1.918c1.046-1.69 3.354-2.805 5.843-2.805 5.41 0 8.981 3.668 8.981 9.349 0 5.68-3.571 9.348-8.981 9.348-2.453 0-4.797-1.115-5.843-2.84V63.4a.6.6 0 0 1-.601.599h-2.765Zm3.366-15.604c0 3.487 2.236 5.968 5.41 5.968 3.138 0 5.41-2.445 5.41-5.968 0-3.56-2.272-5.969-5.41-5.969-3.174 0-5.41 2.409-5.41 5.969ZM89.853 57.744c-5.268 0-9.138-2.823-9.848-8.053a.578.578 0 0 1 .583-.648h2.953c.308 0 .563.233.617.535.539 3.053 2.794 4.534 5.695 4.534 2.778 0 4.725-1.366 4.725-3.487 0-5.933-13.85-2.661-13.85-11.722 0-4.17 3.643-6.903 8.476-6.903 5.044 0 8.39 2.538 9.2 6.808a.572.572 0 0 1-.574.67h-2.972a.65.65 0 0 1-.613-.48c-.622-2.118-2.487-3.366-5.041-3.366-2.597 0-4.256 1.186-4.256 3.092 0 5.105 13.886 1.905 13.886 11.649 0 4.459-3.75 7.37-8.98 7.37Z" fill="#F0F1F4"/><defs><clipPath id="a"><path fill="#fff" d="M0 0h64v64H0z"/></clipPath></defs></svg>
